storage/app/icons/phosphoricons/light/cardholder-light.svg

<svg xmlns="http://www.w3.org/2000/svg" fill="currentColor" viewBox="0 0 256 256"><path d="M208 50H48a22 22 0 0 0-22 22v112a22 22 0 0 0 22 22h160a22 22 0 0 0 22-22V72a22 22 0 0 0-22-22M38 94h180v20h-58a6 6 0 0 0-6 6 26 26 0 0 1-52 0 6 6 0 0 0-6-6H38Zm10-32h160a10 10 0 0 1 10 10v10H38V72a10 10 0 0 1 10-10m160 132H48a10 10 0 0 1-10-10v-58h52.47a38 38 0 0 0 75.06 0H218v58a10 10 0 0 1-10 10"/></svg>

<svg xmlns="http://www.w3.org/2000/svg" viewBox="0 0 256 256" fill="currentColor"><path d="M208,50H48A22,22,0,0,0,26,72V184a22,22,0,0,0,22,22H208a22,22,0,0,0,22-22V72A22,22,0,0,0,208,50ZM38,94H218v20H160a6,6,0,0,0-6,6,26,26,0,0,1-52,0,6,6,0,0,0-6-6H38ZM48,62H208a10,10,0,0,1,10,10V82H38V72A10,10,0,0,1,48,62ZM208,194H48a10,10,0,0,1-10-10V126H90.47a38,38,0,0,0,75.06,0H218v58A10,10,0,0,1,208,194Z"/></svg>
